2.WithTST/chrome/icons/library.svg

<svg xmlns="http://www.w3.org/2000/svg" width="16" height="16" viewBox="0 0 16 16">
   <path
   style="fill:context-fill;fill-opacity:context-fill-opacity"
   d="M 8.109375 0.0078125 C 7.9566202 0.019445078 7.8018075 0.04484125 7.6484375 0.0859375 L 1.8535156 1.6386719 L 1.6953125 1.6855469 C 0.4575625 2.1048269 -0.2571225 3.4208519 0.0859375 4.7011719 L 1.6386719 10.496094 L 1.6914062 10.666016 C 2.0377962 11.670316 2.9749931 12.328709 4.0019531 12.349609 L 4.0019531 11.347656 C 3.3598431 11.325556 2.7803987 10.889228 2.6054688 10.236328 L 1.0507812 4.4414062 L 1.0214844 4.3007812 C 0.89482437 3.5472312 1.3601513 2.8072688 2.1132812 2.6054688 L 7.9082031 1.0507812 L 8.0488281 1.0214844 C 8.8023281 0.89482438 9.5423406 1.3601513 9.7441406 2.1132812 L 10.25 4.0019531 L 11.285156 4.0019531 L 10.710938 1.8535156 L 10.662109 1.6953125 L 10.605469 1.5449219 C 10.192644 0.54428062 9.1786584 -0.073615547 8.109375 0.0078125 z M 7.5019531 5.0019531 L 7.3359375 5.0058594 C 6.0318475 5.0905094 5.0019531 6.1764731 5.0019531 7.5019531 L 5.0019531 13.5 L 5.0058594 13.666016 C 5.0905094 14.970116 6.1764731 16 7.5019531 16 L 13.5 16 L 13.666016 15.996094 C 14.970116 15.911494 16 14.8255 16 13.5 L 16 7.5019531 L 15.996094 7.3359375 C 15.911494 6.0318475 14.8255 5.0019531 13.5 5.0019531 L 7.5019531 5.0019531 z M 7.5019531 6.0019531 L 13.5 6.0019531 L 13.644531 6.0078125 C 14.405131 6.0805025 15 6.7222631 15 7.5019531 L 15 13.5 L 14.994141 13.644531 C 14.921441 14.405131 14.2797 15 13.5 15 L 7.5019531 15 L 7.3574219 14.994141 C 6.5967719 14.921441 6.0019531 14.2797 6.0019531 13.5 L 6.0019531 7.5019531 L 6.0078125 7.3574219 C 6.0805025 6.5967719 6.7222631 6.0019531 7.5019531 6.0019531 z M 10.5 7.0019531 C 10.2239 7.0019531 10 7.2258131 10 7.5019531 L 10 10.001953 L 7.5019531 10.001953 L 7.4121094 10.009766 C 7.1788594 10.052066 7.0019531 10.256453 7.0019531 10.501953 C 7.0019531 10.778053 7.2258131 11.001953 7.5019531 11.001953 L 10 11.001953 L 10 13.501953 L 10.009766 13.591797 C 10.052166 13.825097 10.2545 14.001953 10.5 14.001953 C 10.7761 14.001953 11 13.778053 11 13.501953 L 11 11.001953 L 13.501953 11.001953 L 13.591797 10.992188 C 13.825097 10.949888 14.001953 10.747353 14.001953 10.501953 C 14.001953 10.225753 13.778053 10.001953 13.501953 10.001953 L 11 10.001953 L 11 7.5019531 L 10.992188 7.4121094 C 10.949887 7.1788594 10.7455 7.0019531 10.5 7.0019531 z " />
</svg>

<svg xmlns="http://www.w3.org/2000/svg" width="16" height="16">
  <path style="fill:context-fill;fill-opacity:context-fill-opacity" d="M8.11.008a2.522 2.522 0 0 0-.462.078L1.854 1.639l-.159.047A2.501 2.501 0 0 0 .085 4.7l1.554 5.795.052.17a2.503 2.503 0 0 0 2.311 1.684v-1.002a1.5 1.5 0 0 1-1.397-1.112L1.051 4.441l-.03-.14a1.5 1.5 0 0 1 1.092-1.696l5.795-1.554.14-.03a1.5 1.5 0 0 1 1.696 1.092l.506 1.889h1.035l-.574-2.148-.049-.159-.057-.15A2.5 2.5 0 0 0 8.11.008zm-.608 4.994-.166.004a2.5 2.5 0 0 0-2.334 2.496V13.5l.004.166A2.5 2.5 0 0 0 7.502 16H13.5l.166-.004A2.5 2.5 0 0 0 16 13.5V7.502l-.004-.166A2.5 2.5 0 0 0 13.5 5.002H7.502zm0 1H13.5l.145.006c.76.073 1.355.714 1.355 1.494V13.5l-.006.145A1.501 1.501 0 0 1 13.5 15H7.502l-.145-.006A1.501 1.501 0 0 1 6.002 13.5V7.502l.006-.145a1.501 1.501 0 0 1 1.494-1.355zm2.998 1a.5.5 0 0 0-.5.5v2.5H7.502l-.09.008a.5.5 0 0 0 .09.992H10v2.5l.01.09a.498.498 0 0 0 .99-.09v-2.5h2.502l.09-.01a.498.498 0 0 0-.09-.99H11v-2.5l-.008-.09a.5.5 0 0 0-.492-.41z"/>
</svg>
